picto/attention-train-right-framed.svg

<svg class="color-immutable" width="30" height="30" viewBox="0 0 30 30" fill="none" xmlns="http://www.w3.org/2000/svg"><path d="M30 0H0V30H30V0Z" fill="#2D327D"/><path d="M25.5 3C26.325 3 27 3.675 27 4.5V25.5C27 26.325 26.325 27 25.5 27H4.5C3.675 27 3 26.325 3 25.5V4.5C3 3.675 3.675 3 4.5 3H25.5ZM25.5 2.625H4.5C3.46613 2.625 2.625 3.46613 2.625 4.5V25.5C2.625 26.5339 3.46613 27.375 4.5 27.375H25.5C26.5339 27.375 27.375 26.5339 27.375 25.5V4.5C27.375 3.46613 26.5339 2.625 25.5 2.625Z" fill="white"/><path d="M24.7559 22.2329L15.848 6.80422C15.6664 6.50212 15.3713 6.28634 15.0018 6.28514C14.644 6.28409 14.333 6.51164 14.1548 6.80564L5.24739 22.2343C5.07662 22.5428 5.03724 22.9063 5.22092 23.2268C5.39897 23.5372 5.75147 23.6925 6.09527 23.7H23.9105C24.263 23.6934 24.5976 23.5461 24.783 23.2267C24.9629 22.9174 24.921 22.5342 24.7559 22.2329Z" fill="white"/><path d="M15.0018 7.73866L23.5245 22.5H6.47965L15.0018 7.73866ZM14.9994 6.28523C14.6426 6.28523 14.3326 6.51241 14.1548 6.80573L5.2474 22.2344C5.07663 22.5428 5.03725 22.9064 5.22085 23.2268C5.3989 23.5372 5.7514 23.6925 6.0952 23.7H23.9105C24.2629 23.6934 24.5976 23.5461 24.783 23.2267C24.9629 22.9175 24.921 22.5343 24.7559 22.233L15.848 6.80423C15.6664 6.50213 15.3713 6.28636 15.0018 6.28516C15.001 6.28523 15.0002 6.28523 14.9994 6.28523Z" fill="#EB0000"/><path d="M18.4065 17.4831V18.5854C18.4065 18.6493 18.4583 18.7011 18.5221 18.7011C18.586 18.7011 18.6379 18.6493 18.6379 18.5854V17.6455H18.7394V20.1585C18.7394 20.2504 18.814 20.325 18.9059 20.325C18.9978 20.325 19.0723 20.2504 19.0723 20.1585V18.697H19.1778V20.1585C19.1778 20.2504 19.2523 20.325 19.3444 20.325C19.4362 20.325 19.5108 20.2504 19.5108 20.1585V17.6455H19.6123V18.5854C19.6123 18.6493 19.6641 18.7011 19.728 18.7011C19.7918 18.7011 19.8436 18.6493 19.8436 18.5854V17.4831C19.8436 17.3038 19.6981 17.1583 19.5188 17.1583H18.7312C18.5519 17.1583 18.4065 17.3038 18.4065 17.4831Z" fill="black"/><path d="M19.443 16.7498C19.443 16.5705 19.2975 16.425 19.1182 16.425C18.939 16.425 18.7935 16.5705 18.7935 16.7498C18.7935 16.9291 18.939 17.0747 19.1182 17.0747C19.2975 17.0747 19.443 16.9291 19.443 16.7498Z" fill="black"/><path d="M18 20.625H16.125H15.75V21V22.125H16.125V21H18V20.625Z" fill="#EB0000"/><path d="M21.375 20.625H18V21H21.375V20.625Z" fill="black"/><path d="M15.75 15V15.1591L15.9091 15H15.75Z" fill="#EB0000"/><path d="M16.25 15L15.75 15.5V15.6591L16.4091 15H16.25Z" fill="#EB0000"/><path d="M16.75 15L15.75 16V16.1591L16.9091 15H16.75Z" fill="#EB0000"/><path d="M17.75 15L15.75 17V17.1591L17.9091 15H17.75Z" fill="#EB0000"/><path d="M18 15.25L15.75 17.5V17.6591L18 15.4091V15.25Z" fill="#EB0000"/><path d="M18 15.75L15.75 18V18.1591L18 15.9091V15.75Z" fill="#EB0000"/><path d="M18 16.25L15.75 18.5V18.6591L18 16.4091V16.25Z" fill="#EB0000"/><path d="M18 16.75L15.75 19V19.1591L18 16.9091V16.75Z" fill="#EB0000"/><path d="M18 17.25L15.75 19.5V19.6591L18 17.4091V17.25Z" fill="#EB0000"/><path d="M18 17.75L15.75 20V20.1591L18 17.9091V17.75Z" fill="#EB0000"/><path d="M18 18.25L16 20.25H16.1592L18 18.4091V18.25Z" fill="#EB0000"/><path d="M18 18.75L16.5 20.25H16.6591L18 18.9091V18.75Z" fill="#EB0000"/><path d="M18 19.25L17 20.25H17.1591L18 19.4091V19.25Z" fill="#EB0000"/><path d="M18 19.75L17.5 20.25H17.6592L18 19.9091V19.75Z" fill="#EB0000"/><path d="M17.25 15L15.75 16.5V16.6591L17.4091 15H17.25Z" fill="#EB0000"/><path d="M14.625 21.525H14.25V22.125H14.625V21.525Z" fill="black"/><path d="M12 21.525H11.625V22.125H12V21.525Z" fill="black"/><path d="M15.2689 15.6439L14.7311 15.1061C14.6727 15.0477 14.5575 15 14.475 15H11.775C11.6925 15 11.5773 15.0477 11.5189 15.1061L10.9811 15.6439C10.9227 15.7023 10.875 15.8175 10.875 15.9V20.475C10.875 20.5575 10.9051 20.6854 10.942 20.7592L11.1829 21.2408C11.2198 21.3146 11.3175 21.375 11.4 21.375H14.85C14.9325 21.375 15.0301 21.3146 15.067 21.2408L15.3079 20.7592C15.3449 20.6854 15.375 20.5575 15.375 20.475V15.9C15.375 15.8175 15.3273 15.7023 15.2689 15.6439ZM12.75 15.45H13.5V15.75H12.75V15.45ZM12 19.5H11.25V19.2H12V19.5ZM15 19.5H14.25V19.2H15V19.5ZM15 18H11.25V16.125H15V18Z" fill="black"/><path d="M14.1188 13.875H12.1313C12.0588 13.875 12 13.9338 12 14.0063C12 14.0787 12.0588 14.1375 12.1313 14.1375H12.9938V14.85H13.2563V14.1375H14.1188C14.1912 14.1375 14.25 14.0787 14.25 14.0063C14.25 13.9338 14.1912 13.875 14.1188 13.875Z" fill="black"/></svg>

<svg class="color-immutable" width="30" height="30" viewBox="0 0 30 30" fill="none" xmlns="http://www.w3.org/2000/svg"><g clip-path="url(#a)"><path d="M30 0H0v30h30V0Z" fill="#2D327D"/><path d="M25.5 3c.825 0 1.5.675 1.5 1.5v21c0 .825-.675 1.5-1.5 1.5h-21c-.825 0-1.5-.675-1.5-1.5v-21C3 3.675 3.675 3 4.5 3h21Zm0-.375h-21A1.877 1.877 0 0 0 2.625 4.5v21c0 1.034.841 1.875 1.875 1.875h21a1.877 1.877 0 0 0 1.875-1.875v-21A1.877 1.877 0 0 0 25.5 2.625Z" fill="#fff"/><path d="M24.756 22.233 15.848 6.804c-.182-.302-.477-.518-.846-.519-.358 0-.669.227-.847.52l-8.908 15.43c-.17.308-.21.671-.026.992.178.31.53.465.874.473h17.816c.352-.007.687-.154.872-.473.18-.31.138-.693-.027-.994Z" fill="#fff"/><path d="M15.002 7.739 23.524 22.5H6.48l8.522-14.761Zm-.003-1.454c-.356 0-.666.227-.844.52l-8.908 15.43c-.17.308-.21.671-.026.992.178.31.53.465.874.473h17.816c.352-.007.687-.154.872-.473.18-.31.138-.693-.027-.994L15.848 6.804c-.182-.302-.477-.518-.846-.519h-.003Z" fill="#EB0000"/><path d="M18.407 17.483v1.102a.116.116 0 1 0 .23 0v-.94h.102v2.514a.167.167 0 0 0 .333 0v-1.462h.106v1.462a.167.167 0 0 0 .333 0v-2.514h.101v.94a.116.116 0 1 0 .232 0v-1.102a.325.325 0 0 0-.325-.325h-.788a.325.325 0 0 0-.325.325ZM19.443 16.75a.325.325 0 1 0-.65 0 .325.325 0 0 0 .65 0Z" fill="#000"/><path d="M18 20.625h-2.25v1.5h.375V21H18v-.375Z" fill="#EB0000"/><path d="M21.375 20.625H18V21h3.375v-.375Z" fill="#000"/><path d="M15.75 15v.16l.16-.16h-.16ZM16.25 15l-.5.5v.16l.66-.66h-.16ZM16.75 15l-1 1v.16L16.91 15h-.16ZM17.75 15l-2 2v.16L17.91 15h-.16ZM18 15.25l-2.25 2.25v.16L18 15.41v-.16ZM18 15.75 15.75 18v.16L18 15.91v-.16ZM18 16.25l-2.25 2.25v.16L18 16.41v-.16ZM18 16.75 15.75 19v.16L18 16.91v-.16ZM18 17.25l-2.25 2.25v.16L18 17.41v-.16ZM18 17.75 15.75 20v.16L18 17.91v-.16ZM18 18.25l-2 2h.16L18 18.41v-.16ZM18 18.75l-1.5 1.5h.16L18 18.91v-.16ZM18 19.25l-1 1h.16l.84-.84v-.16ZM18 19.75l-.5.5h.16l.34-.34v-.16ZM17.25 15l-1.5 1.5v.16L17.41 15h-.16Z" fill="#EB0000"/><path d="M14.625 21.525h-.375v.6h.375v-.6ZM12 21.525h-.375v.6H12v-.6ZM15.269 15.644l-.538-.538a.417.417 0 0 0-.256-.106h-2.7a.417.417 0 0 0-.256.106l-.538.538a.417.417 0 0 0-.106.256v4.575c0 .082.03.21.067.284l.24.482a.267.267 0 0 0 .218.134h3.45c.082 0 .18-.06.217-.134l.24-.482a.755.755 0 0 0 .068-.284V15.9a.417.417 0 0 0-.106-.256Zm-2.519-.194h.75v.3h-.75v-.3ZM12 19.5h-.75v-.3H12v.3Zm3 0h-.75v-.3H15v.3Zm0-1.5h-3.75v-1.875H15V18ZM14.119 13.875H12.13a.131.131 0 0 0 0 .262h.863v.713h.262v-.713h.863a.131.131 0 0 0 0-.262Z" fill="#000"/></g><defs><clipPath id="a"><path fill="#fff" d="M0 0h30v30H0z"/></clipPath></defs></svg>
